static/assets/images/networks/ton-mono.svg

<svg width="256" height="256" viewBox="0 0 256 256" fill="none" xmlns="http://www.w3.org/2000/svg">
<path fill-rule="evenodd" clip-rule="evenodd" d="M40.3557 0H215.776C222.48 0 227.902 1.16917 234.771 4.47161C241.77 7.83716 246.13 10.358 250.369 16.8127C255.144 24.082 256 31.3013 256 39.1266C256 45.8341 254.883 52.5415 250.413 59.2489L139.798 249.293C137.563 253.764 133.094 256 127.507 256C123.038 256 118.569 253.764 115.217 249.293L6.83586 59.2489C4.6012 54.7773 0.731495 48.092 0.131892 40.2445C-0.5139 31.7926 1.2492 25.7118 4.60118 19.0044C7.95317 12.2969 12.5818 8.12841 20.3547 4.30581C27.1937 0.942547 35.8864 0 40.3557 0ZM114.099 26.8297H40.3557C35.8864 26.8297 35.2411 26.4658 32.5344 27.9476C30.369 29.133 29.1955 30.2238 28.0651 32.4192C27.0462 34.3981 27.1586 35.4706 27.1586 37.4776C27.1586 38.5514 28.0651 40.2445 30.2997 44.7161L114.099 190.044V26.8297ZM140.915 26.8297V191.162L225.832 44.7161C226.949 42.4803 226.949 40.2445 226.949 38.0087C226.949 35.7729 226.936 34.352 225.832 32.4192C224.914 30.811 224.715 30.1834 222.48 29.0655C220.245 27.9476 218.011 27.9476 214.659 27.9476H140.915V26.8297Z" fill="black"/>
</svg>

<svg xmlns="http://www.w3.org/2000/svg" fill="none" viewBox="0 0 256 256"><path fill="#000" fill-rule="evenodd" d="M40.356 0h175.42c6.704 0 12.126 1.17 18.995 4.472 6.999 3.365 11.359 5.886 15.598 12.34 4.775 7.27 5.631 14.49 5.631 22.315 0 6.707-1.117 13.414-5.587 20.122L139.798 249.293c-2.235 4.471-6.704 6.707-12.291 6.707-4.469 0-8.938-2.236-12.29-6.707L6.836 59.249C4.6 54.777.73 48.092.132 40.245c-.646-8.452 1.117-14.533 4.47-21.24 3.351-6.708 7.98-10.877 15.753-14.7C27.194.944 35.886 0 40.355 0m73.743 26.83H40.356c-4.47 0-5.115-.364-7.822 1.118-2.165 1.185-3.338 2.276-4.469 4.471-1.019 1.98-.906 3.052-.906 5.059 0 1.073.906 2.767 3.14 7.238l83.8 145.328zm26.816 0v164.332l84.917-146.446c1.117-2.236 1.117-4.471 1.117-6.707s-.013-3.657-1.117-5.59c-.918-1.608-1.117-2.236-3.352-3.353-2.235-1.118-4.469-1.118-7.821-1.118h-73.744z" clip-rule="evenodd"/></svg>
